X:929
T:Reel 929
M:4/4
K:Dmix
L:1/8
D2FD ADBD|E>C (3A,A,C GECE|D2FD ADFD|| (3ABc GE EDDG:||2A2EC ADD2|Addc Addc|AccB cccd|Addc Adde|cAGE EDD2|Addc Acdc|AccB ABcB|ecdB cABG|AcGE EDD2|
